X:159
T:Pretty Girls of Mayo (reel), The   
B:CRE1.075 (Cailini Deasa Mhuigheo)
F:file ID: cre.1/159pretty_g
S:Tommy Potts
M:C
L:1/8
Q:180
R:reel
K:G
D|G2AG Adde|fdge fdcA|G2AG Adde|fdcA AGFA|
G2AG Adde|fdge fdcA|G2AG Adde|fdcA AGG2||
g2ag fddc|ABcA dBcA|g2ag fdde|fdcA AGG2|
g2ag fddc|ABcA dBcA|G2AG Adde|fdcA AGG2||

%%%

